X: 43
T: O Panie/ w swoje własne uszysmy słychali,
C: Mikołaj Gomółka
%%abc-version 2.0
%%abcx-abcm2ps-target-version 5.9.1 (29 Sep 2008)
%%abc-creator hum2abc beta
%%abcx-conversion-date 2021/10/04 07:59:10
%%abc-edited-by Anna Matuszewska
%%abcx-initial-encoding-date 2020-02-08
%%humdrum-veritas 3027567631
%%humdrum-veritas-data 3961792829
%%linebreak <none>
%%barnumbers 0
L: 1/4
M: C|
N: Derived from pl-wn--sd-xvi-qu-273--044_gomolka-mikolaj--o-panie-w-swoje-wlasne-uszysmy-slychali.krn
%%staves [1 2 3 4]
V: 1
V: 2
V: 3 clef=alto
V: 4 clef=bass
K: C
[V:1] A6A2 [I:setbarnb 3][|] 
[V:2] F6E2 [|] 
[V:3] D6^C2 [|] 
[V:4] D,6A,2 [|] 
[V:1] A2c4A2 [|] 
[V:2] E2A4A2 [|] 
[V:3] C2F4F2 [|] 
[V:4] A,2F,4F,2 [|] 
[V:1] c2B2B2^G2 [|] 
[V:2] G2>F2EDE2 [|] 
[V:3] E2DCB,A,B,2 [|] 
[V:4] C,2D,2E,2E,2 [|] 
[V:1] A2>G2F4 [|] 
[V:2] E2F2>G2A2 [|] 
[V:3] A,2D2D4 [|] 
[V:4] ^C,2D,2>E,2F,G, [|] 
[V:1] E2A2A2A2 [|] 
[V:2] A,2>B,2^C2D2 [|] 
[V:3] ^C2>D2E2F2 [|] 
[V:4] A,2A,,2A,,2D,2 [|] 
[V:1] B4G2c2 [|] 
[V:2] D2D2G,2G2 [|] 
[V:3] G2>F2E3D [|] 
[V:4] G,,2G,,2C,2C,2 [|] 
[V:1] c4B4 [|] 
[V:2] AGEFG2E2 [|] 
[V:3] C4G,3A, [|] 
[V:4] A,,B,,C,D,E,2E,,2 [|] 
[V:1] ^G2^G2A4 [|] 
[V:2] E2E2E2E4 [|] 
[V:3] B,2B,2C4 [|] 
[V:4] E,,2E,,2A,,4 [|] 
[V:1] A2FGA4 [|] 
[V:2] D2E4 [|] 
[V:3] A,2>B,2^C4 [|] 
[V:4] D,4A,,4 [|] 


